src/assets/duotone/ArrowSwapHorizontal.svg

<svg width="24" height="24" viewBox="0 0 24 24"  xmlns="http://www.w3.org/2000/svg">
<path opacity="0.4" d="M7.81 2H16.18C19.83 2 22 4.17 22 7.81V16.18C22 19.82 19.83 21.99 16.19 21.99H7.81C4.17 22 2 19.83 2 16.19V7.81C2 4.17 4.17 2 7.81 2Z" />
<path d="M17.69 13.48C17.61 13.3 17.47 13.15 17.28 13.07C17.19 13.03 17.09 13.01 16.99 13.01H7C6.59 13.01 6.25 13.35 6.25 13.76C6.25 14.17 6.59 14.51 7 14.51H15.19L13.52 16.18C13.23 16.47 13.23 16.95 13.52 17.24C13.67 17.39 13.86 17.46 14.05 17.46C14.24 17.46 14.43 17.39 14.58 17.24L17.53 14.29C17.6 14.22 17.65 14.14 17.69 14.05C17.77 13.86 17.77 13.66 17.69 13.48Z" />
<path d="M6.31 10.52C6.39 10.7 6.53 10.85 6.72 10.93C6.81 10.97 6.9 10.99 7 10.99H17C17.41 10.99 17.75 10.65 17.75 10.24C17.75 9.82998 17.41 9.48998 17 9.48998H8.81L10.48 7.81998C10.77 7.52998 10.77 7.04998 10.48 6.75998C10.19 6.46998 9.71 6.46998 9.42 6.75998L6.47 9.70998C6.4 9.77998 6.35 9.85998 6.31 9.94998C6.23 10.14 6.23 10.34 6.31 10.52Z" />
</svg>

<?xml version="1.0" encoding="UTF-8"?>
<svg width="24" height="24" viewBox="0 0 24 24" xmlns="http://www.w3.org/2000/svg">
 <path d="M7.81 2H16.18C19.83 2 22 4.17 22 7.81V16.18C22 19.82 19.83 21.99 16.19 21.99H7.81C4.17 22 2 19.83 2 16.19V7.81C2 4.17 4.17 2 7.81 2Z" opacity=".4"/>
 <path d="m17.69 13.48c-0.08-0.18-0.22-0.33-0.41-0.41-0.09-0.04-0.19-0.06-0.29-0.06h-9.99c-0.41 0-0.75 0.34-0.75 0.75s0.34 0.75 0.75 0.75h8.19l-1.67 1.67c-0.29 0.29-0.29 0.77 0 1.06 0.15 0.15 0.34 0.22 0.53 0.22s0.38-0.07 0.53-0.22l2.95-2.95c0.07-0.07 0.12-0.15 0.16-0.24 0.08-0.19 0.08-0.39 0-0.57z"/>
 <path d="m6.31 10.52c0.08 0.18 0.22 0.33 0.41 0.41 0.09 0.04 0.18 0.06 0.28 0.06h10c0.41 0 0.75-0.34 0.75-0.75 0-0.41002-0.34-0.75002-0.75-0.75002h-8.19l1.67-1.67c0.29-0.29 0.29-0.77 0-1.06s-0.77-0.29-1.06 0l-2.95 2.95c-0.07 0.07-0.12 0.15-0.16 0.24-0.08 0.19002-0.08 0.39002 0 0.57002z"/>
</svg>
